; generated by PrusaSlicer 2.7.4+linux-x64-GTK3 on 2024-04-20 at 15:18:08 UTC


;
;
; A 22.4mm hole with -0.05 mm yx correction is 21.9 near the build plate and 22.1 30mm high up.
; try xy correecton of 0.0 when the dimension is set by 0.4 too large.
; 
; Outside diameters are exact with xy-correction of 0.05 -- so we actually cannot compensate for the slicer's errors with the current tuning options.
; 

; external perimeters extrusion width = 0.45mm
; perimeters extrusion width = 0.45mm
; infill extrusion width = 0.45mm
; solid infill extrusion width = 0.45mm
; top infill extrusion width = 0.40mm
; support material extrusion width = 0.35mm
; first layer extrusion width = 0.42mm

M73 P0 R21
M73 Q0 S21
M201 X1000 Y1000 Z200 E5000 ; sets maximum accelerations, mm/sec^2
M203 X200 Y200 Z12 E120 ; sets maximum feedrates, mm / sec
M204 S1250 T1250 ; sets acceleration (S) and retract acceleration (R), mm/sec^2
M205 X8.00 Y8.00 Z0.40 E4.50 ; sets the jerk limits, mm/sec
M205 S0 T0 ; sets the minimum extruding and travel feed rate, mm/sec
;TYPE:Custom
M862.3 P "MK3S" ; printer model check
M862.1 P0.4 ; nozzle diameter check
M115 U3.13.3 ; tell printer latest fw version
G90 ; use absolute coordinates
M83 ; extruder relative mode
M104 S240 ; set extruder temp
M140 S85 ; set bed temp
M190 S85 ; wait for bed temp
M109 S240 ; wait for extruder temp
G28 W ; home all without mesh bed level
G80 X66.9228 Y152.807 W37.146 H33.3826 ; mesh bed levelling

G1 Z0.2 F720
G1 Y-3 F1000 ; go outside print area
G92 E0
G1 X60 E9 F1000 ; intro line
G1 X100 E12.5 F1000 ; intro line

G92 E0
M221 S95

; Don't change E values below. Excessive value can damage the printer.

G21 ; set units to millimeters
G90 ; use absolute coordinates
M83 ; use relative distances for extrusion

M900 K0.08 ; Filament gcode LA 1.5
M900 K45 ; Filament gcode LA 1.0




M107
;LAYER_CHANGE
;Z:0.2
;HEIGHT:0.2
G1 E-1 F2100
G1 Z.4 F10800
G1 X92.531 Y153.58
G1 Z.2
G1 E1 F2100
M204 S1000
;TYPE:Skirt/Brim
;WIDTH:0.42
G1 F1800
G1 X94.448 Y153 E.0628
G1 X95.496 Y153.091 E.03298
G1 X96.585 Y153.309 E.03482
G1 X97.59 Y153.629 E.03307
G1 X98.688 Y154.126 E.03779
G1 X99.591 Y154.668 E.03302
G1 X100.476 Y155.343 E.0349
G1 X101.247 Y156.081 E.03346
G1 X101.96 Y156.935 E.03488
G1 X102.617 Y157.945 E.03778
G1 X103.167 Y159.083 E.03963
G1 X103.526 Y160.139 E.03497
G1 X103.784 Y161.371 E.03947
G1 X103.88 Y162.579 E.038
G1 X103.075 Y164.596 E.06809
G1 X95.724 Y171.917 E.32529
G1 X78.46 Y185.418 E.68717
G1 X76.695 Y186.001 E.05828
G1 X75.078 Y185.838 E.05096
G1 X73.997 Y185.572 E.03491
G1 X72.872 Y185.149 E.03768
G1 X71.936 Y184.666 E.03302
G1 X71.009 Y184.05 E.0349
G1 X69.896 Y183.075 E.04639
G1 X68.942 Y181.94 E.04649
G1 X68.175 Y180.681 E.04622
G1 X67.588 Y179.264 E.04809
G1 X67.24 Y177.835 E.04611
G1 X67.111 Y176.418 E.04461
G1 X67.917 Y174.401 E.0681
G1 X75.267 Y167.08 E.32527
G1 X92.484 Y153.616 E.68529
G1 X92.484 Y153.616 F10800
G1 X92.716 Y153.914
G1 F1800
G1 X92.763 Y153.877 E.00188
G1 X94.438 Y153.377 E.05481
G1 X95.446 Y153.465 E.03173
G1 X96.487 Y153.673 E.03328
G1 X97.453 Y153.981 E.03179
G1 X98.38 Y154.391 E.03178
G1 X99.256 Y154.898 E.03173
G1 X100.073 Y155.497 E.03176
G1 X100.87 Y156.232 E.03399
G1 X101.533 Y156.996 E.03172
G1 X102.189 Y157.958 E.03651
G1 X102.68 Y158.902 E.03336
G1 X103.09 Y159.991 E.03648
G1 X103.371 Y161.171 E.03803
G1 X103.503 Y162.588 E.04462
G1 X102.808 Y164.329 E.05878
G1 X95.492 Y171.62 E.32385
G1 X78.228 Y185.121 E.68717
G1 X76.704 Y185.624 E.05032
M73 Q1 S21
G1 X74.944 Y185.427 E.05553
G1 X73.92 Y185.152 E.03324
G1 X72.977 Y184.782 E.03176
G1 X72.079 Y184.313 E.03176
G1 X71.117 Y183.658 E.03649
G1 X70.122 Y182.766 E.0419
G1 X69.217 Y181.676 E.04442
M73 P1 R21
G1 X68.486 Y180.461 E.04446
G1 X67.947 Y179.15 E.04444
G1 X67.612 Y177.777 E.04431
G1 X67.488 Y176.409 E.04307
G1 X68.184 Y174.668 E.05879
G1 X75.5 Y167.377 E.32385
G1 X92.669 Y153.95 E.68339
;WIPE_START
G1 F8640
G1 X92.716 Y153.914 E-.01367
G1 X92.763 Y153.877 E-.01381
G1 X94.438 Y153.377 E-.40363
G1 X95.446 Y153.465 E-.23364
G1 X96.487 Y153.673 E-.24512
G1 X96.859 Y153.792 E-.09013
;WIPE_END
G1 Z.4 F10800
G1 X80.988 Y174.54
G1 Z.2
G1 E1 F2100
;TYPE:Perimeter
;WIDTH:0.554266
G1 F1800
G1 X81.686 Y173.843 E.04194
G1 X81.972 Y174.54 E.03203
G1 X81.048 Y174.54 E.03929
G1 X81.048 Y174.54 F10800
G1 X80.528 Y175.085
;WIDTH:0.419999
G1 F1800
G1 X80.528 Y174.674 E.01289
G1 X80.491 Y174.409 E.00839
G1 X81.784 Y173.117 E.05731
G1 X82.078 Y173.631 E.01857
G1 X82.288 Y174.101 E.01614
G1 X82.558 Y174.985 E.02898
G1 X80.839 Y174.985 E.0539
G1 X80.585 Y175.067 E.00837
G1 X80.585 Y175.067 F10800
G1 X80.315 Y175.749
;WIDTH:0.501757
G1 F1800
G1 X80.311 Y175.756 E.00031
;WIDTH:0.542636
G1 X80.212 Y175.9 E.00726
G1 X80.192 Y175.695 E.00856
;WIDTH:0.501757
G1 X80.171 Y175.491 E.00782
;WIDTH:0.460878
G1 X80.151 Y175.287 E.00712
;WIDTH:0.419999
G1 X80.151 Y174.552 E.02305
G1 X80.076 Y174.292 E.00848
G1 X81.843 Y172.533 E.07817
G1 X82.153 Y172.992 E.01737
G1 X82.421 Y173.476 E.01735
G1 X82.644 Y173.976 E.01717
G1 X82.815 Y174.47 E.01639
G1 X83.008 Y175.362 E.02862
G1 X80.839 Y175.362 E.06801
G1 X80.507 Y175.469 E.01094
;WIDTH:0.460878
G1 X80.409 Y175.613 E.00605
;WIDTH:0.501757
G1 X80.349 Y175.7 E.00403
;WIPE_START
G1 F8640
G1 X80.315 Y175.749 E-.01377
G1 X80.311 Y175.756 E-.00186
G1 X80.212 Y175.9 E-.04035
G1 X80.192 Y175.695 E-.04756
G1 X80.171 Y175.491 E-.04735
G1 X80.151 Y175.287 E-.04733
G1 X80.151 Y174.552 E-.16971
G1 X80.076 Y174.292 E-.06248
G1 X81.824 Y172.552 E-.56959
;WIPE_END
G1 Z.4 F10800
G1 X75.155 Y180.373
G1 Z.2
G1 E1 F2100
;WIDTH:0.554271
G1 F1800
G1 X75.155 Y181.36 E.04197
G1 X74.46 Y181.069 E.03204
G1 X75.113 Y180.416 E.03927
G1 X75.113 Y180.416 F10800
G1 X75.7 Y179.913
;WIDTH:0.419999
G1 F1800
G1 X75.6 Y180.224 E.01024
G1 X75.6 Y181.942 E.05387
G1 X75.027 Y181.786 E.01862
G1 X74.547 Y181.603 E.01611
G1 X73.731 Y181.169 E.02898
G1 X75.024 Y179.876 E.05733
G1 X75.137 Y179.913 E.00373
G1 X75.64 Y179.913 E.01577
G1 X75.64 Y179.913 F10800
G1 X76.333 Y179.685
;WIDTH:0.551522
G1 F1800
G1 X76.317 Y179.698 E.00087
;WIDTH:0.507681
G1 X76.2 Y179.795 E.00587
;WIDTH:0.46384
G1 X76.084 Y179.892 E.00529
;WIDTH:0.419999
G1 X75.977 Y180.224 E.01094
G1 X75.97 Y182.396 E.0681
G1 X75.426 Y182.292 E.01737
G1 X74.894 Y182.139 E.01736
G1 X74.385 Y181.943 E.0171
G1 X73.913 Y181.714 E.01645
G1 X73.146 Y181.221 E.02859
G1 X74.907 Y179.46 E.07809
G1 X75.137 Y179.536 E.00759
G1 X75.902 Y179.536 E.02399
;WIDTH:0.46384
G1 X76.079 Y179.558 E.00624
;WIDTH:0.507681
G1 X76.256 Y179.58 E.00689
;WIDTH:0.551522
G1 X76.433 Y179.602 E.00754
G1 X76.379 Y179.647 E.00297
G1 X76.379 Y179.647 F10800
G1 X76.534 Y180.035
;TYPE:External perimeter
;WIDTH:0.419999
G1 F1800
G1 X76.39 Y180.113 E.00513
G1 X76.354 Y180.224 E.00366
G1 X76.354 Y182.811 E.08111
G1 X75.9 Y182.767 E.0143
G1 X75.324 Y182.655 E.0184
G1 X74.762 Y182.492 E.01835
G1 X74.222 Y182.283 E.01816
G1 X73.721 Y182.039 E.01747
G1 X73.247 Y181.756 E.01731
G1 X72.582 Y181.252 E.02616
G1 X74.844 Y178.99 E.1003
G1 X75.137 Y179.159 E.01061
G1 X78.591 Y179.158 E.1083
;WIDTH:0.421177
G1 X78.719 Y179.11 E.0043
;WIDTH:0.423022
G1 X79.287 Y178.644 E.02322
G1 X79.731 Y178.094 E.02234
;WIDTH:0.419778
G1 X79.774 Y177.976 E.00394
;WIDTH:0.419999
G1 X79.774 Y174.522 E.1083
G1 X79.605 Y174.229 E.01061
G1 X81.865 Y171.969 E.10021
G1 X82.154 Y172.321 E.01428
G1 X82.482 Y172.807 E.01838
G1 X82.765 Y173.32 E.01837
G1 X82.999 Y173.851 E.01819
G1 X83.18 Y174.376 E.01741
G1 X83.315 Y174.912 E.01733
G1 X83.405 Y175.456 E.01729
G1 X83.429 Y175.739 E.00891
G1 X80.961 Y175.739 E.07738
G1 X80.728 Y175.775 E.00739
G1 X80.65 Y175.919 E.00513
G1 X80.6 Y176.853 E.02933
G1 X80.417 Y177.554 E.02272
G1 X80.023 Y178.328 E.02723
;WIDTH:0.417346
G1 X79.473 Y178.983 E.02663
;WIDTH:0.421177
G1 X78.957 Y179.404 E.02095
G1 X78.685 Y179.55 E.00971
;WIDTH:0.419999
G1 X78.215 Y179.789 E.01653
G1 X77.425 Y179.996 E.02561
G1 X76.594 Y180.033 E.02608
;WIPE_START
G1 F8640
G1 X76.534 Y180.035 E-.01386
G1 X76.39 Y180.113 E-.03781
G1 X76.354 Y180.224 E-.02694
G1 X76.354 Y182.811 E-.59735
G1 X75.9 Y182.767 E-.10532
G1 X75.324 Y182.655 E-.13549
G1 X74.978 Y182.555 E-.08323
;WIPE_END
G1 Z.4 F10800
G1 X80.193 Y176.751
G1 Z.2
G1 E1 F2100
;TYPE:Perimeter
;WIDTH:0.542636
G1 F1800
G1 X80.212 Y175.9 E.03537
;WIPE_START
G1 F8640
G1 X80.193 Y176.751 E-.19655
;WIPE_END
G1 E-.80345 F2100
G1 Z.4 F10800
G1 X76.433 Y179.602
G1 Z.2
G1 E1 F2100
;WIDTH:0.551522
G1 F1800
G1 X77.362 Y179.579 E.0393
;WIPE_START
G1 F8640
G1 X76.433 Y179.602 E-.21457
;WIPE_END
G1 E-.78543 F2100
G1 Z.4 F10800
G1 X78.572 Y172.124
G1 Z.2
G1 E1 F2100
;WIDTH:0.554258
G1 F1800
G1 X78.572 Y171.138 E.04192
G1 X79.268 Y171.429 E.03207
G1 X78.615 Y172.082 E.03926
G1 X78.615 Y172.082 F10800
G1 X78.028 Y172.585
;WIDTH:0.419999
G1 F1800
G1 X78.128 Y172.274 E.01024
G1 X78.128 Y170.555 E.0539
G1 X78.699 Y170.711 E.01856
G1 X79.181 Y170.895 E.01618
G1 X79.996 Y171.329 E.02895
G1 X78.703 Y172.622 E.05733
G1 X78.591 Y172.585 E.0037
G1 X78.088 Y172.585 E.01577
G1 X78.088 Y172.585 F10800
G1 X77.395 Y172.813
;WIDTH:0.551524
G1 F1800
G1 X77.411 Y172.799 E.0009
;WIDTH:0.507683
G1 X77.527 Y172.702 E.00584
;WIDTH:0.463841
G1 X77.644 Y172.605 E.00532
;WIDTH:0.419999
G1 X77.751 Y172.274 E.01091
G1 X77.757 Y170.101 E.06813
G1 X78.302 Y170.206 E.0174
G1 X78.832 Y170.358 E.01729
G1 X79.344 Y170.555 E.0172
G1 X79.815 Y170.783 E.01641
G1 X80.581 Y171.277 E.02858
G1 X78.821 Y173.037 E.07804
G1 X78.591 Y172.962 E.00759
G1 X77.826 Y172.962 E.02399
;WIDTH:0.463841
G1 X77.649 Y172.94 E.00624
;WIDTH:0.507683
G1 X77.472 Y172.918 E.00689
;WIDTH:0.551524
G1 X77.294 Y172.896 E.00759
G1 X77.348 Y172.851 E.00297
;WIPE_START
G1 F8640
G1 X77.395 Y172.813 E-.01396
G1 X77.411 Y172.799 E-.00491
G1 X77.527 Y172.702 E-.03492
G1 X77.644 Y172.605 E-.03509
G1 X77.751 Y172.274 E-.08032
G1 X77.757 Y170.101 E-.50175
G1 X78.302 Y170.206 E-.12816
G1 X78.832 Y170.358 E-.12731
G1 X79.129 Y170.472 E-.07358
;WIPE_END
G1 Z.4 F10800
G1 X72.739 Y177.957
G1 Z.2
G1 E1 F2100
;WIDTH:0.554271
G1 F1800
G1 X72.044 Y178.653 E.04182
G1 X71.753 Y177.957 E.03208
G1 X72.679 Y177.957 E.03937
G1 X72.679 Y177.957 F10800
G1 X73.2 Y177.412
;WIDTH:0.419999
G1 F1800
G1 X73.2 Y177.824 E.01292
G1 X73.237 Y178.088 E.00836
G1 X71.944 Y179.381 E.05733
G1 X71.716 Y178.995 E.01406
G1 X71.497 Y178.539 E.01586
G1 X71.315 Y178.051 E.01633
G1 X71.17 Y177.513 E.01747
G1 X72.889 Y177.513 E.0539
G1 X73.143 Y177.431 E.00837
G1 X73.143 Y177.431 F10800
G1 X73.426 Y176.781
;WIDTH:0.551522
G1 F1800
G1 X73.511 Y176.679 E.00562
G1 X73.533 Y176.856 E.00754
;WIDTH:0.507681
G1 X73.555 Y177.034 E.00693
;WIDTH:0.46384
G1 X73.577 Y177.211 E.00624
;WIDTH:0.419999
G1 X73.577 Y177.946 E.02305
G1 X73.652 Y178.206 E.00848
G1 X71.892 Y179.966 E.07804
G1 X71.648 Y179.623 E.0132
G1 X71.369 Y179.145 E.01735
G1 X71.134 Y178.645 E.01732
G1 X70.952 Y178.153 E.01645
G1 X70.812 Y177.65 E.01637
G1 X70.716 Y177.136 E.01639
G1 X72.889 Y177.136 E.06813
G1 X73.221 Y177.029 E.01094
;WIDTH:0.46384
G1 X73.317 Y176.912 E.0053
;WIDTH:0.507681
G1 X73.388 Y176.827 E.00428
G1 X73.388 Y176.827 F10800
G1 X73.077 Y176.579
;TYPE:External perimeter
;WIDTH:0.419999
G1 F1800
G1 X73.127 Y175.645 E.02933
G1 X73.31 Y174.944 E.02272
G1 X73.702 Y174.173 E.02712
;WIDTH:0.419122
G1 X74.204 Y173.558 E.02483
;WIDTH:0.421202
G1 X74.771 Y173.094 E.02305
G1 X75.043 Y172.948 E.00971
;WIDTH:0.419999
G1 X75.513 Y172.709 E.01653
G1 X76.302 Y172.502 E.02558
G1 X77.194 Y172.462 E.028
G1 X77.338 Y172.385 E.00512
G1 X77.374 Y172.274 E.00366
G1 X77.374 Y169.686 E.08114
G1 X77.827 Y169.731 E.01427
G1 X78.404 Y169.843 E.01843
G1 X78.965 Y170.005 E.01831
G1 X79.507 Y170.215 E.01822
G1 X80.006 Y170.459 E.01742
G1 X80.481 Y170.742 E.01734
G1 X80.929 Y171.062 E.01726
G1 X81.145 Y171.246 E.0089
G1 X78.883 Y173.508 E.1003
G1 X78.591 Y173.339 E.01058
G1 X75.137 Y173.34 E.1083
;WIDTH:0.421202
G1 X75.01 Y173.387 E.00426
G1 X74.416 Y173.877 E.02422
;WIDTH:0.419328
G1 X73.996 Y174.405 E.02112
;WIDTH:0.421813
G1 X73.953 Y174.522 E.00393
G1 X73.954 Y175.092 E.01796
;WIDTH:0.419999
G1 X73.954 Y177.976 E.09043
G1 X74.123 Y178.268 E.01058
G1 X71.861 Y180.53 E.1003
G1 X71.664 Y180.296 E.00959
G1 X71.324 Y179.815 E.01847
G1 X71.029 Y179.308 E.01839
G1 X70.762 Y178.725 E.02011
G1 X70.589 Y178.254 E.01573
G1 X70.442 Y177.72 E.01737
G1 X70.301 Y176.759 E.03045
G1 X72.767 Y176.759 E.07732
G1 X73 Y176.723 E.00739
G1 X73.049 Y176.631 E.00327
;WIPE_START
G1 F8640
G1 X73.077 Y176.579 E-.01364
G1 X73.127 Y175.645 E-.21597
G1 X73.31 Y174.944 E-.16729
G1 X73.702 Y174.173 E-.19971
G1 X74.204 Y173.558 E-.18331
G1 X74.771 Y173.094 E-.16917
G1 X74.965 Y172.99 E-.05091
;WIPE_END
G1 Z.4 F10800
G1 X76.366 Y172.919
G1 Z.2
G1 E1 F2100
;TYPE:Perimeter
;WIDTH:0.542636
G1 F1800
G1 X77.213 Y172.9 E.0352
;WIDTH:0.551524
G1 X77.294 Y172.896 E.00343
;WIPE_START
G1 F8640
G1 X77.213 Y172.9 E-.01873
G1 X76.366 Y172.919 E-.19562
;WIPE_END
G1 E-.78565 F2100
G1 Z.4 F10800
G1 X73.511 Y176.679
G1 Z.2
G1 E1 F2100
;WIDTH:0.551522
G1 F1800
G1 X73.534 Y175.747 E.03943
;WIPE_START
G1 F8640
G1 X73.511 Y176.679 E-.21527
;WIPE_END
G1 E-.78473 F2100
G1 Z.4 F10800
G1 X98.252 Y161.04
G1 Z.2
G1 E1 F2100
;WIDTH:0.554266
G1 F1800
G1 X98.95 Y160.342 E.04197
G1 X99.236 Y161.04 E.03207
G1 X98.312 Y161.04 E.03929
G1 X98.312 Y161.04 F10800
G1 X97.792 Y161.585
;WIDTH:0.419999
G1 F1800
G1 X97.792 Y161.174 E.01289
G1 X97.755 Y160.909 E.00839
G1 X99.048 Y159.616 E.05733
G1 X99.342 Y160.131 E.01859
G1 X99.552 Y160.601 E.01614
G1 X99.822 Y161.484 E.02895
G1 X98.103 Y161.484 E.0539
M73 Q2 S21
G1 X97.849 Y161.566 E.00837
G1 X97.849 Y161.566 F10800
G1 X97.579 Y162.249
;WIDTH:0.501757
G1 F1800
G1 X97.575 Y162.256 E.00031
;WIDTH:0.542636
G1 X97.476 Y162.399 E.00723
G1 X97.456 Y162.195 E.00852
;WIDTH:0.501757
G1 X97.435 Y161.991 E.00782
;WIDTH:0.460878
G1 X97.415 Y161.786 E.00716
;WIDTH:0.419999
G1 X97.415 Y161.051 E.02305
G1 X97.339 Y160.791 E.00849
G1 X99.107 Y159.033 E.07817
G1 X99.417 Y159.492 E.01737
G1 X99.685 Y159.975 E.01732
G1 X99.907 Y160.475 E.01715
G1 X100.079 Y160.97 E.01643
G1 X100.272 Y161.861 E.02858
G1 X98.103 Y161.861 E.06801
G1 X97.771 Y161.968 E.01094
;WIDTH:0.460878
G1 X97.673 Y162.112 E.00605
;WIDTH:0.501757
G1 X97.613 Y162.2 E.00406
;WIPE_START
G1 F8640
G1 X97.579 Y162.249 E-.01377
G1 X97.575 Y162.256 E-.00186
G1 X97.476 Y162.399 E-.04016
G1 X97.456 Y162.195 E-.04733
G1 X97.435 Y161.991 E-.04735
M73 P2 R21
G1 X97.415 Y161.786 E-.04756
G1 X97.415 Y161.051 E-.16971
G1 X97.339 Y160.791 E-.06255
G1 X99.088 Y159.051 E-.56971
;WIPE_END
G1 Z.4 F10800
G1 X92.419 Y166.873
G1 Z.2
G1 E1 F2100
;WIDTH:0.554271
G1 F1800
G1 X92.419 Y167.859 E.04192
G1 X91.724 Y167.568 E.03204
G1 X92.377 Y166.915 E.03927
G1 X92.377 Y166.915 F10800
G1 X92.964 Y166.412
;WIDTH:0.419999
G1 F1800
G1 X92.864 Y166.723 E.01024
G1 X92.864 Y168.442 E.0539
G1 X92.291 Y168.286 E.01862
G1 X91.811 Y168.103 E.01611
G1 X90.995 Y167.669 E.02898
G1 X92.288 Y166.376 E.05733
G1 X92.401 Y166.412 E.00372
G1 X92.904 Y166.412 E.01577
G1 X92.904 Y166.412 F10800
G1 X93.597 Y166.184
;WIDTH:0.551522
G1 F1800
G1 X93.581 Y166.198 E.0009
;WIDTH:0.507681
G1 X93.464 Y166.295 E.00587
;WIDTH:0.46384
G1 X93.348 Y166.392 E.00529
;WIDTH:0.419999
G1 X93.241 Y166.723 E.01091
G1 X93.234 Y168.896 E.06813
G1 X92.69 Y168.791 E.01737
G1 X92.158 Y168.639 E.01735
G1 X91.649 Y168.443 E.0171
G1 X91.177 Y168.214 E.01645
G1 X90.41 Y167.72 E.02861
G1 X92.171 Y165.96 E.07806
G1 X92.401 Y166.035 E.00759
G1 X93.166 Y166.035 E.02399
;WIDTH:0.46384
G1 X93.343 Y166.057 E.00624
;WIDTH:0.507681
G1 X93.52 Y166.079 E.00689
;WIDTH:0.551522
G1 X93.697 Y166.101 E.00754
G1 X93.643 Y166.146 E.00297
G1 X93.643 Y166.146 F10800
G1 X93.798 Y166.535
;TYPE:External perimeter
;WIDTH:0.419999
G1 F1800
G1 X93.654 Y166.613 E.00513
G1 X93.618 Y166.723 E.00363
G1 X93.618 Y169.311 E.08114
G1 X93.164 Y169.266 E.0143
G1 X92.588 Y169.154 E.0184
G1 X92.025 Y168.992 E.01837
G1 X91.486 Y168.783 E.01813
G1 X90.985 Y168.539 E.01747
G1 X90.51 Y168.255 E.01735
G1 X89.846 Y167.751 E.02614
G1 X92.108 Y165.489 E.1003
G1 X92.401 Y165.658 E.01061
G1 X95.854 Y165.657 E.10827
;WIDTH:0.421177
